public/icons/creative.svg

<svg width="24" height="24" viewBox="0 0 24 24" fill="none" xmlns="http://www.w3.org/2000/svg">
<path d="M13.5 15V20C13.5 20.8284 14.1716 21.5 15 21.5H20C20.8284 21.5 21.5 20.8284 21.5 20V15C21.5 14.1716 20.8284 13.5 20 13.5H15C14.1716 13.5 13.5 14.1716 13.5 15Z" fill="#1574E5"/>
<path d="M5.03107 13.9013L2.40134 16.5311C1.86622 17.0662 1.86622 17.9338 2.40134 18.4689L5.03107 21.0987C5.5662 21.6338 6.4338 21.6338 6.96893 21.0987L9.59866 18.4689C10.1338 17.9338 10.1338 17.0662 9.59866 16.5311L6.96893 13.9013C6.4338 13.3662 5.5662 13.3662 5.03107 13.9013Z" fill="#1574E5"/>
<path d="M2.5 4L2.5 9C2.5 9.82843 3.17157 10.5 4 10.5H9C9.82843 10.5 10.5 9.82843 10.5 9V4C10.5 3.17157 9.82843 2.5 9 2.5L4 2.5C3.17157 2.5 2.5 3.17157 2.5 4Z" fill="#1574E5"/>
<path d="M17.5 10.5C19.7091 10.5 21.5 8.70914 21.5 6.5C21.5 4.29086 19.7091 2.5 17.5 2.5C15.2909 2.5 13.5 4.29086 13.5 6.5C13.5 8.70914 15.2909 10.5 17.5 10.5Z" fill="#1574E5"/>
</svg>

<svg xmlns="http://www.w3.org/2000/svg" width="24" height="24" fill="none"><path fill="#1574E5" d="M13.5 15v5a1.5 1.5 0 0 0 1.5 1.5h5a1.5 1.5 0 0 0 1.5-1.5v-5a1.5 1.5 0 0 0-1.5-1.5h-5a1.5 1.5 0 0 0-1.5 1.5M5.031 13.901l-2.63 2.63a1.37 1.37 0 0 0 0 1.938l2.63 2.63a1.37 1.37 0 0 0 1.938 0l2.63-2.63a1.37 1.37 0 0 0 0-1.938l-2.63-2.63a1.37 1.37 0 0 0-1.938 0M2.5 4v5A1.5 1.5 0 0 0 4 10.5h5A1.5 1.5 0 0 0 10.5 9V4A1.5 1.5 0 0 0 9 2.5H4A1.5 1.5 0 0 0 2.5 4M17.5 10.5a4 4 0 1 0 0-8 4 4 0 0 0 0 8"/></svg>
